!!!COM: Haydn, Franz Joseph
!!!ONM: Opus 09, No. 2
!!!OTL: Maestoso 
!!!OMV: 4
!!!SCT: H /disk/dos2/musedata_2000/haydn/traut/quart/op09n2/stage1/04
!!!SCA: Thematisch-bibliographisches Werkevererzeichnis (A. van Hoboken)
!!!YOR: Trautwein Edition
!!!EED: Frances Bennion
!!!ENC: Frances Bennion
!!!CDT: 1732/3/31/-1809/5/31/
!!!OCY: Österreich
!!!YEC: Copyright (c) 1994, 2000 Center for Computer Assisted Research in the Humanities
!!!YEM: Rights to all derivative editions reserved.
!!!YEM: Refer to licensing agreement for further details.
!!!YEN: United States of America
**kern	**kern	**kern	**kern
*k[b-e-a-]	*k[b-e-a-]	*k[b-e-a-]	*k[b-e-a-]
*E-:	*E-:	*E-:	*E-:
*clefG	*clefG	*clefC3	*clefF4
*M4/4	*M4/4	*M4/4	*M4/4
*tb24	*tb24	*tb24	*tb24
=0-	=0-	=0-	=0-
2..r	2..r	2..r	2..r
16dd	8r	8r	8r
16ee-	.	.	.
=1	=1	=1	=1
8e-	4r	4r	4E-
4e-	.	.	.
.	4B-	4G	2.r
4e-	.	.	.
.	4c	4A-	.
4e-	.	.	.
.	4B-	4G	.
16dd	.	.	.
16ee-	.	.	.
=2	=2	=2	=2
8e-	4r	4r	4E-
4e-	.	.	.
.	4d-	4B-	2.r
4e-	.	.	.
.	4c	4A-	.
4e-	.	.	.
.	4B-	4G	.
16dd	.	.	.
16ee-	.	.	.
=3	=3	=3	=3
8e-	4r	4r	4E-
4e-	.	.	.
.	4c	4A-	2.r
4e-	.	.	.
.	4B-	4G	.
4e-	.	.	.
.	4A-	4F	.
16dd	.	.	.
16ee-	.	.	.
=4	=4	=4	=4
8e-	4r	4r	4E-
4e-	.	.	.
.	4B-	4G	2.r
4e-	.	.	.
.	4A-	4F	.
4e-	.	.	.
.	4G	4E-	.
8e-	.	.	.
=5	=5	=5	=5
16d	1A-	1F	1BB-
16e-	.	.	.
16f	.	.	.
16g	.	.	.
16a-	.	.	.
16b-	.	.	.
16cc	.	.	.
16b-	.	.	.
16a-	.	.	.
16g	.	.	.
16f	.	.	.
16e-	.	.	.
16d	.	.	.
16c	.	.	.
16B-	.	.	.
16A-	.	.	.
=6	=6	=6	=6
16G	4G	4E-	4E-
16e-	.	.	.
16d	.	.	.
16e-	.	.	.
16B-	2.r	2.r	2.r
16e-	.	.	.
16A-	.	.	.
16e-	.	.	.
4G	.	.	.
4r	.	.	.
=7	=7	=7	=7
[3..gg	16g	16e-	2r
.	16a-	16f	.
.	16b-	16g	.
.	16a-	16f	.
.	16g	16e-	.
.	16a-	16f	.
.	16f	16d	.
.	16g	16e-	.
.	4e-	4c	8r
24gg]	.	.	.
8bb	.	.	8d
8ccc	4r	4r	8e-
8gg	.	.	8E-
=8	=8	=8	=8
[3..ff	16f	4d	4D
.	16b-	.	.
.	16a	.	.
.	16b-	.	.
.	16f	16d	4.r
.	16g	16e-	.
.	16e-	16c	.
.	16f	16d	.
.	4d	4B-	.
24ff]	.	.	.
8aa	.	.	8c
8bb-	4r	4r	8d
8ff	.	.	8D
=9	=9	=9	=9
[3..ee-	16e-	16c	4C
.	16f	16d	.
.	16g	16e-	.
.	16f	16d	.
.	16e-	16c	4r
.	16f	16d	.
.	16d	16B-	.
.	16e-	16c	.
.	4c	4A	4F
24ee-]	.	.	.
8ccc	.	.	.
8aa	4r	4r	4r
8ee-	.	.	.
=10	=10	=10	=10
2dd	2b-	16d	16B-
.	.	16e-	16c
.	.	16f	16d
.	.	16e-	16c
.	.	16d	16B-
.	.	16e-	16c
.	.	16c	16A
.	.	16d	16B-
[2bb-	2dd	16B-	16G
.	.	16c	16A
.	.	16d	16B-
.	.	16c	16A
.	.	16B-	16G
.	.	16c	16A
.	.	16A	16F
.	.	16B-	16G
=11	=11	=11	=11
8bb-]	2.cc	1G	2E-
4cc	.	.	.
4dd-	.	.	.
.	.	.	2E
4cc	.	.	.
.	[4c	.	.
8b-	.	.	.
=12	=12	=12	=12
16a	4c]	4F	4F
16b-	.	.	.
16cc	.	.	.
16b-	.	.	.
16a	4r	4r	4r
16b-	.	.	.
16g	.	.	.
16a	.	.	.
16f	16f	16f	16F
16g	16g	16g	16G
16a	16a	16a	16A
16g	16g	16g	16G
16f	16f	16f	16F
16g	16g	16g	16G
16e-	16e-	16e-	16E-
16f	16f	16f	16F
=13	=13	=13	=13
16d	4d	4d	4D
16b-	.	.	.
16ff	.	.	.
16gg	.	.	.
16ff	4r	4r	4r
16dd	.	.	.
16cc	.	.	.
16b-	.	.	.
16d	4b-	4f	4D
16b-	.	.	.
16ff	.	.	.
16gg	.	.	.
16ff	4r	4r	4r
16dd	.	.	.
16cc	.	.	.
16b-	.	.	.
=14	=14	=14	=14
16bb-	1f	8d	8d
16b-	.	.	.
16aa	.	8e-	8e-
16b-	.	.	.
16bb-	.	8d	8d
16b-	.	.	.
16aa	.	8e-	8e-
16b-	.	.	.
16bb-	.	4d	2d
16b-	.	.	.
16a	.	.	.
16b-	.	.	.
16a-	.	[4B-	.
16b-	.	.	.
16f	.	.	.
16b-	.	.	.
=15	=15	=15	=15
8g	4g	4B-]	4e-
16ff#	.	.	.
16gg	.	.	.
8b	4B	4B	4BB
16ff#	.	.	.
16gg	.	.	.
8cc	4c	4c	4C
16ff#	.	.	.
16gg	.	.	.
8dd	4d	4d	4D
16ff#	.	.	.
16gg	.	.	.
=16	=16	=16	=16
8ee-	4e-	4e-	4E-
16ff#	.	.	.
16gg	.	.	.
8b	4B	4B	4BB
16ff#	.	.	.
16gg	.	.	.
8cc	4c	4c	4C
16ff#	.	.	.
16gg	.	.	.
8dd	4d	4d	4D
16ff#	.	.	.
16gg	.	.	.
=17	=17	=17	=17
8ee-	4e-	4e-	4E-
16ff#	.	.	.
16gg	.	.	.
8dd	4d	4d	4D
16ff#	.	.	.
16gg	.	.	.
8ee-	4e-	4e-	4E-
16ff#	.	.	.
16gg	.	.	.
8e	4e	4e	4E
16aa	.	.	.
16bb-	.	.	.
=18	=18	=18	=18
2f	8f	8f	8F
.	8b-	8f	8F
.	8b-	8f	8F
.	8b-	8f	8F
2cc	8a	8f	8FF
.	8a	8f	8FF
.	8a	8f	8FF
.	8a	8f	8FF
=19	=19	=19	=19
4b-	4b-	4B-	4BB-
16ff	8dd	2.r	2.r
16gg	.	.	.
16aa	8b-	.	.
16bb-	.	.	.
8gg	8ee-	.	.
8ccc	8cc	.	.
8aa	8ff	.	.
8ddd	8dd	.	.
=20	=20	=20	=20
8bb-	8gg	1r	1r
8r	8r	.	.
16aa	8ff	.	.
16bb-	.	.	.
16ccc	8dd	.	.
16ddd	.	.	.
8bb-	8gg	.	.
8eee-	8ee-	.	.
8ccc	8aa	.	.
8fff	8ff	.	.
=21	=21	=21	=21
4ddd	4bb-	2r	2r
3..r	8r	.	.
.	24ff	.	.
.	24gg	.	.
.	24ff	.	.
.	4bb-	4b- 4d	4BB-
.	4r	4r	4r
24r	.	.	.
24fff	.	.	.
24ggg	.	.	.
24fff	.	.	.
=22	=22	=22	=22
8bbb-	8ff 8b-	8d	8D
24fff	8r	8r	8r
24ggg	.	.	.
24fff	.	.	.
8bbb-	8ff 8b-	8d	8D
24fff	8r	8r	8r
24ggg	.	.	.
24fff	.	.	.
8bbb-	8ff 8b-	8d	8D
24fff	4r	4r	4r
24ggg	.	.	.
24fff	.	.	.
8dddd	.	.	.
8e	8e	8e	8E
=23	=23	=23	=23
2f	8f	8f	8F
.	8b-	8f	8F
.	8b-	8f	8F
.	8b-	8f	8F
2cc	8a	8f	8F
.	8a	8f	8F
.	8a	8f	8F
.	8a	8f	8F
=24	=24	=24	=24
16b-	4b-	4B-	4BB-
16dd	.	.	.
16cc	.	.	.
16dd	.	.	.
16f	8B-	4r	4r
16dd	.	.	.
16e-	8c	.	.
16cc	.	.	.
16d	4d	4B-	4BB-
16b-	.	.	.
16a	.	.	.
16b-	.	.	.
16f	8d	4r	4r
16b-	.	.	.
16e-	8c	.	.
16b-	.	.	.
=25	=25	=25	=25
4d	16B-	4B-	4BB-
.	16f	.	.
.	16e-	.	.
.	16f	.	.
4b- 4d	16d	8F	4BB-
.	16e-	.	.
.	16c	8E-	.
.	16d	.	.
4b- 4d	4B-	4D	4BB-
4r	4r	4r	8r
.	.	.	16A
.	.	.	16B-
=26	=26	=26	=26
4r	4r	1r	8BB-
.	.	.	4BB-
4f	4d	.	.
.	.	.	4BB-
4g	4e-	.	.
.	.	.	4BB-
4f	4d	.	.
.	.	.	16A
.	.	.	16B-
=27	=27	=27	=27
4r	4r	4r	8C
.	.	.	4C
4dd-	4b-	4e	.
.	.	.	4C
4cc	4a-	4f	.
.	.	.	4C
4b-	4g	4g	.
.	.	.	16E
.	.	.	16F
=28	=28	=28	=28
4r	4r	4r	8FF
.	.	.	4FF
4a-	4f	4a-	.
.	.	.	4FF
4b-	4g	4g	.
.	.	.	4FF
4cc	4a-	4f	.
.	.	.	16A
.	.	.	16B-
=29	=29	=29	=29
4r	4r	4r	8BB-
.	.	.	4BB-
4cc	4a-	4d	.
.	.	.	4BB-
4b-	4g	4e-	.
.	.	.	4BB-
4a-	4f	4f	.
.	.	.	16A
.	.	.	16B-
=30	=30	=30	=30
4r	4r	4r	8BB-
.	.	.	4BB-
4g	4e-	4g	.
.	.	.	4BB-
4a-	4f	4f	.
.	.	.	4BB-
4b-	4g	4e-	.
.	.	.	16A
.	.	.	16B-
=31	=31	=31	=31
4r	4r	4r	8BB-
.	.	.	4BB-
4f	4d	4f	.
.	.	.	4BB-
4g	4e-	4e-	.
.	.	.	4BB-
4a-	4f	4d	.
.	.	.	16A
.	.	.	16B-
=32	=32	=32	=32
4r	4r	4r	8BB-
.	.	.	4BB-
4g	4e-	2e-	.
.	.	.	4BB-
4a	4c	.	.
.	.	.	4BB-
4ee-	4a	4c	.
.	.	.	16A
.	.	.	16B-
=33	=33	=33	=33
8dd	8b-	8B-	8BB-
16a	16a	16a	16A
16b-	16b-	16b-	16B-
8B-	8B-	8B-	8BB-
16a	16a	16a	16A
16b-	16b-	16b-	16B-
4B-	4B-	4B-	4BB-
8r	4r	4r	4r
16dd	.	.	.
16ee-	.	.	.
=34	=34	=34	=34
8e-	4r	4r	4E-
4e-	.	.	.
.	4B-	4G	2.r
4e-	.	.	.
.	4c	4A-	.
4e-	.	.	.
.	4B-	4G	.
16dd	.	.	.
16ee-	.	.	.
=35	=35	=35	=35
8e-	4r	4r	1r
4e-	.	.	.
.	4d-	4B-	.
4e-	.	.	.
.	4c	4A-	.
4e-	.	.	.
.	4B-	4G	.
16ee	.	.	.
16ff	.	.	.
=36	=36	=36	=36
8f	4r	4r	4F
4f	.	.	.
.	4c	4A	2.r
4f	.	.	.
.	4d	4B-	.
4f	.	.	.
.	4c	4A	.
16ee	.	.	.
16ff	.	.	.
=37	=37	=37	=37
8f	4r	4r	1r
4f	.	.	.
.	4e-	4c	.
4f	.	.	.
.	4d	4B-	.
4f	.	.	.
.	4c	4A	.
16ff#	.	.	.
16gg	.	.	.
=38	=38	=38	=38
8g	4r	4r	4G
4g	.	.	.
.	4d	4B	2.r
4g	.	.	.
.	4e-	4c	.
4g	.	.	.
.	4d	4B	.
16ff#	.	.	.
16gg	.	.	.
=39	=39	=39	=39
8g	4r	4r	1r
4g	.	.	.
.	4f	4d	.
4g	.	.	.
.	4e-	4c	.
4g	.	.	.
.	4d	4B	.
8ff	.	.	.
=40	=40	=40	=40
4ee-	16e-	16c	4C
.	16f	16d	.
.	16g	16e-	.
.	16f	16d	.
4r	16e-	16c	4r
.	16f	16d	.
.	16d	16B-	.
.	16e-	16c	.
16aa-	4c	4A-	16F
16bb-	.	.	16G
16ccc	.	.	16A-
16bb-	.	.	16G
16aa-	4r	4r	16F
16bb-	.	.	16G
16gg	.	.	16E-
16aa-	.	.	16F
=41	=41	=41	=41
4ff	16d	16B-	4D
.	16e-	16c	.
.	16f	16d	.
.	16e-	16c	.
4r	16d	16B-	4r
.	16e-	16c	.
.	16c	16A-	.
.	16d	16B-	.
16gg	4B-	4G	16E-
16aa-	.	.	16F
16bb-	.	.	16G
16aa-	.	.	16F
16gg	4r	4r	16E-
16aa-	.	.	16F
16ff	.	.	16D
16gg	.	.	16E-
=42	=42	=42	=42
4ee-	16c	16A-	4C
.	16d	16B-	.
.	16e-	16c	.
.	16d	16B-	.
4r	16c	16A-	4r
.	16d	16B-	.
.	16B-	16G	.
.	16c	16A-	.
16ff	4A-	4F	16D
16gg	.	.	16E-
16aa-	.	.	16F
16gg	.	.	16E-
16ff	4r	4r	16D
16gg	.	.	16E-
16ee-	.	.	16C
16ff	.	.	16D
=43	=43	=43	=43
16dd	16dd	2r	4BB-
16ee-	16ee-	.	.
16ff	16ff	.	.
16ee-	16ee-	.	.
16dd	16dd	.	2.r
16ee-	16ee-	.	.
16cc	16cc	.	.
16dd	16dd	.	.
16b-	16b-	16b-	.
16cc	16cc	16cc	.
16dd	16dd	16dd	.
16cc	16cc	16cc	.
16b-	16b-	16b-	.
16cc	16cc	16cc	.
16a-	16a-	16a-	.
16b-	16b-	16b-	.
=44	=44	=44	=44
16g	16g	16g	16G
16f	16f	16f	16F
16g	16g	16g	16G
16a-	16a-	16a-	16A-
16b-	16b-	16b-	16B-
16g	16g	16g	16G
16f	16f	16f	16F
16e-	16e-	16e-	16E-
16d	16d	16d	16D
16e-	16e-	16e-	16E-
16f	16f	16f	16F
16e-	16e-	16e-	16E-
16d	16d	16d	16D
16c	16c	16c	16C
16B-	16B-	16B-	16BB-
16A-	16A-	16A-	16AA-
=45	=45	=45	=45
16G	4G	4G	4GG
16e-	.	.	.
16b-	.	.	.
16cc	.	.	.
16b-	4r	4r	4r
16g	.	.	.
16f	.	.	.
16e-	.	.	.
16G	4e-	4B-	4GG
16e-	.	.	.
16b-	.	.	.
16cc	.	.	.
16b-	4r	4r	4r
16g	.	.	.
16f	.	.	.
16e-	.	.	.
=46	=46	=46	=46
16ee-	1B-	8G	8GG
16e-	.	.	.
16dd	.	8A-	8AA-
16e-	.	.	.
16ee-	.	8G	8GG
16e-	.	.	.
16dd	.	8A-	8AA-
16e-	.	.	.
16ee-	.	4G	2GG
16e-	.	.	.
16d	.	.	.
16e-	.	.	.
16d-	.	[4E-	.
16e-	.	.	.
16B-	.	.	.
16e-	.	.	.
=47	=47	=47	=47
8c	4c	4E-]	4AA-
16b	.	.	.
16cc	.	.	.
8e	4e	4E	4EE
16b	.	.	.
16cc	.	.	.
8f	4f	4F	4FF
16b	.	.	.
16cc	.	.	.
8g	4g	4G	4GG
16b	.	.	.
16cc	.	.	.
=48	=48	=48	=48
8a-	4a-	4A-	4AA-
16b	.	.	.
16cc	.	.	.
8e	4e	4E	4EE
16b	.	.	.
16cc	.	.	.
8f	4f	4F	4FF
16b	.	.	.
16cc	.	.	.
8g	4g	4G	4GG
16b	.	.	.
16cc	.	.	.
=49	=49	=49	=49
8a-	4a-	4A-	4AA-
16b	.	.	.
16cc	.	.	.
8g	4G	4G	4GG
16b	.	.	.
16cc	.	.	.
8a-	4A-	4A-	4AA-
16b	.	.	.
16cc	.	.	.
8A	4A	4A	4AA
16dd	.	.	.
16ee-	.	.	.
=50	=50	=50	=50
2B-	8B-	8B-	8BB-
.	8e-	8B-	8BB-
.	8e-	8B-	8BB-
.	8e-	8B-	8BB-
2f	8d	8B-	8BB-
.	8d	8B-	8BB-
.	8d	8B-	8BB-
.	8d	8B-	8BB-
=51	=51	=51	=51
4e-	4e-	4e-	4E-
16b-	8g	2.r	2.r
16cc	.	.	.
16dd	8e-	.	.
16ee-	.	.	.
8cc	8a-	.	.
8ff	8f	.	.
8dd	8b-	.	.
8gg	8g	.	.
=52	=52	=52	=52
8ee-	8cc	1r	1r
8r	8r	.	.
16dd	8b-	.	.
16ee-	.	.	.
16ff	8g	.	.
16gg	.	.	.
8ee-	8cc	.	.
8aa-	8a-	.	.
8ff	8dd	.	.
8bb-	8b-	.	.
=53	=53	=53	=53
4gg	4ee-	2r	2r
3..r	8r	.	.
.	24b-	.	.
.	24cc	.	.
.	24b-	.	.
.	4ee-	4G 4e-	4E-
.	4r	4r	4r
24r	.	.	.
24bb-	.	.	.
24ccc	.	.	.
24bb-	.	.	.
=54	=54	=54	=54
8eee-	8b- 8e-	8G	8G
24bb-	8r	8r	8r
24ccc	.	.	.
24bb-	.	.	.
8eee-	8e- 8b-	8G	8G
24bb-	8r	8r	8r
24ccc	.	.	.
24bb-	.	.	.
8eee-	8b- 8e-	8G	8G
24bb-	4r	4r	4r
24ccc	.	.	.
24bb-	.	.	.
8ggg	.	.	.
8A	8A	8A	8A
=55	=55	=55	=55
2B-	8B-	8B-	8B-
.	8e-	8B-	8BB-
.	8e-	8B-	8BB-
.	8e-	8B-	8BB-
2f	8d	8B-	8BB-
.	8d	8B-	8BB-
.	8d	8B-	8BB-
.	8d	8B-	8BB-
=56	=56	=56	=56
16e-	4e-	4e-	4E-
16g	.	.	.
16f	.	.	.
16g	.	.	.
16B-	8e-	4r	4r
16g	.	.	.
16A-	8f	.	.
16f	.	.	.
16G	4g	4e-	4E-
16e-	.	.	.
16d	.	.	.
16e-	.	.	.
16B-	8G	8G	4r
16e-	.	.	.
16A-	8A-	8F	.
16e-	.	.	.
=57	=57	=57	=57
4G	16G	4E-	4EE-
.	16e-	.	.
.	16d	.	.
.	16e-	.	.
4e- 4G	16B-	8G	4EE-
.	16e-	.	.
.	16A-	8F	.
.	16e-	.	.
4e- 4G	4G	4E-	4EE-
4r	4r	4r	4r
==	==	==	==
*-	*-	*-	*-
!!!RWG1: This file contains only pitch and duration data.
!!!RWG2: Transposing instruments are not transposed.
!!!RWG3: Spines may have incompatible meters.
!!!RWG4: Durations of rests and tied notes may be interpreted.
!!!RWG: Key is interpreted using the Humdrum key tool.
!!!AFT: stage1
!!!END: 1997/04/15
!!format changes:
!!content changes:
!!public access: complete
!!!KEY: 1193190620
!!!EMD: Converted from MuseData to Humdrum Dec 16, 2000, by Andreas Kornstaedt using muse2kern.
